X:1
T:On a Chines Honeymoon
T:On a Chinese Honeymoon
T:W. L. Shockley/C. J. Hausman
C:W. L. Shockley/C. J. Hausman
%%score [ 1 2 3 4 ]
L:1/8
Q:1/4=90
M:3/4
K:A
V:1 treble-8 nm="T1"
V:2 treble-8 nm="T2"
V:3 bass nm="B1"
V:4 bass nm="B2"
V:1
 E2 E2 | c4 c2 | e4 ^d2 | =d6- | d2 d2 d2 | c4 c2 | e4 ^d2 | =d6- | d2 d2 d2 | c4 c2 | f4 e2 | %11
w: On a|Chi- nese|hon- ey-|moon,|_ in the|mer- ry|month of|June,|_ to the|dream- y|land of|
 ^d2 d4- | d2 ^d2 d2 | ^d4 d2 | ^d4 d2 | =d6- | d2 z2 E2 | c4 c2 | e4 ^d2 | =d6- | d2 d2 d2 | %21
w: mys- t'ry,|_ where the|lot- us|flow- ers|bloom.|_ Be-|neath a|Chin- ese|moon,|_ we will|
 c4 c2 | f4 f2 | =f6- | f2 =f2 f2 | ^f4 e2 | f2 =f2 e2 | ^d2 d4- | d2 ^d2 d2 | e4 c2 | d2 d4 | %31
w: croon love's|old sweet|tune,|_ and to-|geth- er|we _ will|wan- der|_ on a|Chi- nese|hon- ey-|
 c6- | c2 |] %33
w: moon.|_|
V:2
 E2 E2 | E4 F2 | A4 F2 | G6- | G2 F2 =F2 | E4 ^F2 | A4 F2 | G6- | G2 F2 =F2 | E4 A2 | d4 c2 | %11
w: On a|Chi- nese|hon- ey-|moon,|_ in the|mer- ry|month of|June,|_ to the|dream- y|land of|
 B2 F4- | F2 G2 A2 | B4 F2 | c4 =c2 | B6- | B2 z2 E2 | E4 F2 | A4 F2 | G6- | G2 F2 =F2 | E4 ^F2 | %22
w: mys- t'ry,|_ where the|lot- us|flow- ers|bloom.|_ Be-|neath a|Chin- ese|moon,|_ we will|croon love's|
 A4 d2 | c6- | c2 =c2 ^c2 | d4 c2 | d4 c2 | B2 F4- | F2 G2 A2 | c4 A2 | A2 B4 | A6- | A2 |] %33
w: old sweet|tune,|_ and to-|geth- er|we will|wan- der|_ on a|Chi- nese|hon- ey-|moon.|_|
V:3
 E,2 E,2 | A,4 A,2 | C4 =C2 | B,6 | G,2 G,2 G,2 | A,4 A,2 | C4 =C2 | B,6 | G,2 G,2 G,2 | A,4 A,2 | %10
w: On a|Chi- nese|hon- ey-|moon,|_ in the|mer- ry|month of|June,|_ to the|dream- y|
 ^A,4 A,2 | =A,2 A,4- | A,2 G,2 F,2 | F,4 F,2 | A,4 A,2 | G,4 F,2 | E,2 z2 E,2 | A,4 A,2 | C4 =C2 | %19
w: land of|mys- t'ry,|_ where the|lot- us|flow- ers|bloom, they|bloom. Be-|neath a|Chin- ese|
 B,6 | G,2 G,2 G,2 | A,4 A,2 | A,4 G,2 | G,2 ^^F,2 G,2 | C2 =C2 B,2 | ^A,4 A,2 | ^A,2 A,2 A,2 | %27
w: moon,|_ we will|croon love's|old sweet,|Love's old sweet|tune, and to-|geth- er|we _ will|
 =A,2 A,4- | A,2 G,2 F,2 | A,4 A,2 | F,2 G,4 | E,6- | E,2 |] %33
w: wan- der|_ on a|Chi- nese|hon- ey-|moon.|_|
V:4
 E,2 E,2 | A,,4 A,,2 | E,4 E,2 | E,6- | E,2 E,2 E,2 | A,,4 A,,2 | E,4 E,2 | E,6- | E,2 E,2 E,2 | %9
w: On a|Chi- nese|hon- ey-|moon,|_ in the|mer- ry|month of|June,|_ to the|
 A,,4 E,2 | F,4 F,2 | B,,2 B,,4- | B,,2 B,,2 B,,2 | B,,4 B,,2 | B,,4 B,,2 | E,6- | E,2 z2 E,2 | %17
w: dream- y|land of|mys- t'ry,|_ where the|lot- us|flow- ers|bloom.|_ Be-|
 A,,4 A,,2 | A,,4 A,,2 | E,6- | E,2 E,2 E,2 | A,,4 A,,2 | D,4 D,2 | C,6- | C,2 C,2 C,2 | F,4 F,2 | %26
w: neath a|Chin- ese|moon,|_ we will|croon love's|old sweet|tune,|_ and to-|geth- er|
 F,4 F,2 | B,,2 B,,4- | B,,2 B,,2 B,,2 | E,4 E,2 | B,,2 E,4 | A,,6- | A,,2 |] %33
w: we will|wan- der|_ on a|Chi- nese|hon- ey-|moon.|_|

